static/img/kroki/d0d44e58b159acddd756210306c54692.svg

<?xml version="1.0" encoding="us-ascii" standalone="no"?><svg xmlns="http://www.w3.org/2000/svg" xmlns:xlink="http://www.w3.org/1999/xlink" contentStyleType="text/css" height="252px" preserveAspectRatio="none" style="width:508px;height:252px;" version="1.1" viewBox="0 0 508 252" width="508px" zoomAndPan="magnify"><defs/><g><!--class azure_network_subnet--><g id="elem_azure_network_subnet"><rect codeLine="23" fill="#3D176E" height="39.7891" id="azure_network_subnet" rx="2.5" ry="2.5" style="stroke:#000D19;stroke-width:0.5;" width="233" x="64" y="7"/><ellipse cx="79" cy="26.8945" fill="#ADD1B2" rx="11" ry="11" style="stroke:#181818;stroke-width:1.0;"/><path d="M81.9688,32.5352 Q81.3906,32.832 80.75,32.9727 Q80.1094,33.1289 79.4063,33.1289 Q76.9063,33.1289 75.5781,31.4883 Q74.2656,29.832 74.2656,26.707 Q74.2656,23.582 75.5781,21.9258 Q76.9063,20.2695 79.4063,20.2695 Q80.1094,20.2695 80.75,20.4258 Q81.4063,20.582 81.9688,20.8789 L81.9688,23.5977 Q81.3438,23.0195 80.75,22.7539 Q80.1563,22.4727 79.5313,22.4727 Q78.1875,22.4727 77.5,23.5508 Q76.8125,24.6133 76.8125,26.707 Q76.8125,28.8008 77.5,29.8789 Q78.1875,30.9414 79.5313,30.9414 Q80.1563,30.9414 80.75,30.6758 Q81.3438,30.3945 81.9688,29.8164 L81.9688,32.5352 Z " fill="#000000"/><text fill="#D9B8FF" font-family="Helvetica" font-size="17" lengthAdjust="spacing" textLength="191" x="98" y="32.7798">azure_network_subnet</text></g><!--class azure_sql_server_managed_instance--><g id="elem_azure_sql_server_managed_instance"><rect codeLine="26" fill="#3D176E" height="39.7891" id="azure_sql_server_managed_instance" rx="2.5" ry="2.5" style="stroke:#000D19;stroke-width:0.5;" width="347" x="7" y="206.58"/><ellipse cx="22" cy="226.4745" fill="#ADD1B2" rx="11" ry="11" style="stroke:#181818;stroke-width:1.0;"/><path d="M24.9688,232.1152 Q24.3906,232.412 23.75,232.5527 Q23.1094,232.7089 22.4063,232.7089 Q19.9063,232.7089 18.5781,231.0683 Q17.2656,229.412 17.2656,226.287 Q17.2656,223.162 18.5781,221.5058 Q19.9063,219.8495 22.4063,219.8495 Q23.1094,219.8495 23.75,220.0058 Q24.4063,220.162 24.9688,220.4589 L24.9688,223.1777 Q24.3438,222.5995 23.75,222.3339 Q23.1563,222.0527 22.5313,222.0527 Q21.1875,222.0527 20.5,223.1308 Q19.8125,224.1933 19.8125,226.287 Q19.8125,228.3808 20.5,229.4589 Q21.1875,230.5214 22.5313,230.5214 Q23.1563,230.5214 23.75,230.2558 Q24.3438,229.9745 24.9688,229.3964 L24.9688,232.1152 Z " fill="#000000"/><text fill="#D9B8FF" font-family="Helvetica" font-size="17" lengthAdjust="spacing" textLength="305" x="41" y="232.3598">azure_sql_server_managed_instance</text></g><!--class azure_sql_server_managed_instance_pool--><g id="elem_azure_sql_server_managed_instance_pool"><rect codeLine="29" fill="#3D176E" height="39.7891" id="azure_sql_server_managed_instance_pool" rx="2.5" ry="2.5" style="stroke:#000D19;stroke-width:0.5;" width="391" x="110" y="106.79"/><ellipse cx="125" cy="126.6845" fill="#ADD1B2" rx="11" ry="11" style="stroke:#181818;stroke-width:1.0;"/><path d="M127.9688,132.3252 Q127.3906,132.622 126.75,132.7627 Q126.1094,132.9189 125.4063,132.9189 Q122.9063,132.9189 121.5781,131.2783 Q120.2656,129.622 120.2656,126.497 Q120.2656,123.372 121.5781,121.7158 Q122.9063,120.0595 125.4063,120.0595 Q126.1094,120.0595 126.75,120.2158 Q127.4063,120.372 127.9688,120.6689 L127.9688,123.3877 Q127.3438,122.8095 126.75,122.5439 Q126.1563,122.2627 125.5313,122.2627 Q124.1875,122.2627 123.5,123.3408 Q122.8125,124.4033 122.8125,126.497 Q122.8125,128.5908 123.5,129.6689 Q124.1875,130.7314 125.5313,130.7314 Q126.1563,130.7314 126.75,130.4658 Q127.3438,130.1845 127.9688,129.6064 L127.9688,132.3252 Z " fill="#000000"/><text fill="#D9B8FF" font-family="Helvetica" font-size="17" lengthAdjust="spacing" textLength="349" x="144" y="132.5698">azure_sql_server_managed_instance_pool</text></g><!--link azure_network_subnet to azure_sql_server_managed_instance--><g id="link_azure_network_subnet_azure_sql_server_managed_instance"><path codeLine="32" d="M147.68,47.16 C127.65,60.94 103.79,81.5 92.5,106.79 C85.29,122.94 85.29,130.43 92.5,146.58 C103.79,171.87 122.7068,189.0293 142.7368,202.8093 " fill="none" id="azure_network_subnet-to-azure_sql_server_managed_instance" style="stroke:#1A83AF;stroke-width:2.0;"/><polygon fill="#1A83AF" points="147.68,206.21,142.5324,197.8134,143.5607,203.376,137.9981,204.4043,147.68,206.21" style="stroke:#1A83AF;stroke-width:2.0;"/></g><!--link azure_network_subnet to azure_sql_server_managed_instance_pool--><g id="link_azure_network_subnet_azure_sql_server_managed_instance_pool"><path codeLine="33" d="M205.2,47.22 C227.11,64.36 254.2351,85.572 276.1351,102.712 " fill="none" id="azure_network_subnet-to-azure_sql_server_managed_instance_pool" style="stroke:#1A83AF;stroke-width:2.0;"/><polygon fill="#1A83AF" points="280.86,106.41,276.2379,97.7131,276.9226,103.3284,271.3073,104.013,280.86,106.41" style="stroke:#1A83AF;stroke-width:2.0;"/></g><!--link azure_sql_server_managed_instance_pool to azure_sql_server_managed_instance--><g id="link_azure_sql_server_managed_instance_pool_azure_sql_server_managed_instance"><path codeLine="34" d="M280.8,147.01 C258.89,164.15 231.7649,185.362 209.8649,202.502 " fill="none" id="azure_sql_server_managed_instance_pool-to-azure_sql_server_managed_instance" style="stroke:#1A83AF;stroke-width:2.0;"/><polygon fill="#1A83AF" points="205.14,206.2,214.6927,203.803,209.0774,203.1184,209.7621,197.5031,205.14,206.2" style="stroke:#1A83AF;stroke-width:2.0;"/></g><!--SRC=[hP1DQy9048Rl-HKBdWLJQTLB8GhINgJKtae9a-oiBabsqzc9egN_lNwqPKtygD3RCk-pCy_CN4iKM9Iy4WKM2P8BNAPD2GI5Y8ZiScHpIwAb5AXkhnwEhU6Bm0GA50-OBv1r2dNYPQxJpA1puiQBXf1cCxALaVlsJ63S9aB37ZNAmRc8cNHICNeoSf3qbQgJzQQjhWnxTzZ0B4caRwJJwSXmK4SkZZgxzoynrMiKeN-qYMLiQ3P6xAYpbbl2asmi-fEVT7m2ARMPYLklzhnt8eDqK9_EGThbbbQGEt-COoIql2fnrDWA1tsfUaVXnrDma6vF9s1T4SO6UMafYrsLR9xY8mW-3tBtdiSEQO4K5s1WXZBMnZ6O5A-2uzBQVF_ZwE3sQokC-jre_DQ-lzpjFthiZ88_Yb-fzmK0]--></g></svg>

<svg xmlns="http://www.w3.org/2000/svg" width="508" height="252" viewBox="0 0 508 252"><rect width="233" height="39.789" x="64" y="7" fill="#3D176E" rx="2.5" ry="2.5" style="stroke:#000d19;stroke-width:.5"/><circle cx="79" cy="26.895" r="11" fill="#ADD1B2" style="stroke:#181818;stroke-width:1"/><path d="M81.969 32.535q-.578.297-1.219.438-.64.156-1.344.156-2.5 0-3.828-1.64-1.312-1.657-1.312-4.782t1.312-4.781q1.328-1.656 3.828-1.656.703 0 1.344.156.656.156 1.219.453v2.719q-.625-.578-1.219-.844-.594-.281-1.219-.281-1.344 0-2.031 1.078-.687 1.062-.687 3.156t.687 3.172q.688 1.062 2.031 1.062.625 0 1.219-.265.594-.281 1.219-.86z"/><text x="98" y="32.78" fill="#D9B8FF" font-family="Helvetica" font-size="17" textLength="191">azure_network_subnet</text><rect width="347" height="39.789" x="7" y="206.58" fill="#3D176E" rx="2.5" ry="2.5" style="stroke:#000d19;stroke-width:.5"/><circle cx="22" cy="226.475" r="11" fill="#ADD1B2" style="stroke:#181818;stroke-width:1"/><path d="M24.969 232.115q-.578.297-1.219.438-.64.156-1.344.156-2.5 0-3.828-1.64-1.312-1.657-1.312-4.782t1.312-4.781q1.328-1.656 3.828-1.656.703 0 1.344.156.656.156 1.219.453v2.719q-.625-.578-1.219-.844-.594-.281-1.219-.281-1.343 0-2.031 1.078-.687 1.062-.687 3.156t.687 3.172q.688 1.062 2.031 1.062.625 0 1.219-.265.594-.281 1.219-.86z"/><text x="41" y="232.36" fill="#D9B8FF" font-family="Helvetica" font-size="17" textLength="305">azure_sql_server_managed_instance</text><rect width="391" height="39.789" x="110" y="106.79" fill="#3D176E" rx="2.5" ry="2.5" style="stroke:#000d19;stroke-width:.5"/><circle cx="125" cy="126.684" r="11" fill="#ADD1B2" style="stroke:#181818;stroke-width:1"/><path d="M127.969 132.325q-.578.297-1.219.438-.64.156-1.344.156-2.5 0-3.828-1.64-1.312-1.657-1.312-4.782t1.312-4.781q1.328-1.656 3.828-1.656.703 0 1.344.156.656.156 1.219.453v2.719q-.625-.579-1.219-.844-.594-.281-1.219-.281-1.344 0-2.031 1.078-.687 1.062-.687 3.156t.687 3.172q.688 1.062 2.031 1.062.625 0 1.219-.265.594-.281 1.219-.86z"/><text x="144" y="132.57" fill="#D9B8FF" font-family="Helvetica" font-size="17" textLength="349">azure_sql_server_managed_instance_pool</text><path fill="none" d="M147.68 47.16c-20.03 13.78-43.89 34.34-55.18 59.63-7.21 16.15-7.21 23.64 0 39.79 11.29 25.29 30.207 42.45 50.237 56.23" style="stroke:#1a83af;stroke-width:2"/><path fill="#1A83AF" d="m147.68 206.21-5.148-8.397 1.029 5.563-5.563 1.028z" style="stroke:#1a83af;stroke-width:2"/><path fill="none" d="M205.2 47.22c21.91 17.14 49.035 38.352 70.935 55.492" style="stroke:#1a83af;stroke-width:2"/><path fill="#1A83AF" d="m280.86 106.41-4.622-8.697.685 5.615-5.616.685z" style="stroke:#1a83af;stroke-width:2"/><path fill="none" d="M280.8 147.01c-21.91 17.14-49.035 38.352-70.935 55.492" style="stroke:#1a83af;stroke-width:2"/><path fill="#1A83AF" d="m205.14 206.2 9.553-2.397-5.616-.685.685-5.615z" style="stroke:#1a83af;stroke-width:2"/></svg>
